packages/components/icons/assets/SecurityProfileAccountFill.svg

<svg viewBox="0 0 24 24" xmlns="http://www.w3.org/2000/svg" data-title="SecurityProfileAccountFill" fill="currentColor" stroke="none">
  <path d="M9.2306 2C6.95786 2 5.11543 3.84257 5.11543 6.11549 5.11543 8.38842 6.95786 10.231 9.2306 10.231 11.5033 10.231 13.3458 8.38842 13.3458 6.11549 13.3458 3.84257 11.5033 2 9.2306 2ZM9.22099 10.9732C8.68331 10.9729 8.14557 11.0326 7.61792 11.1525 6.55724 11.3935 5.56475 11.8711 4.71464 12.5497 3.86454 13.2283 3.17881 14.0903 2.70873 15.0712 2.23891 16.0517 1.99665 17.1256 2.00004 18.2127V20.2881C2.00004 20.8404 2.44775 21.2882 3.00004 21.2882H10.6149C10.9843 21.2882 11.3236 21.0845 11.4974 20.7585 11.6711 20.4325 11.651 20.0373 11.4451 19.7306 10.8724 18.8777 10.483 17.5626 10.2826 16.097 10.0849 14.6516 10.0866 13.1767 10.2136 12.0893 10.2467 11.8059 10.1572 11.5219 9.96759 11.3087 9.77797 11.0954 9.50632 10.9734 9.22099 10.9732ZM16.6097 10.1923C16.293 10.1923 15.9084 10.2888 15.5875 10.3858 15.2316 10.4933 14.8258 10.6422 14.4202 10.8153 13.6514 11.1435 12.721 11.627 12.1735 12.1745 12.0073 12.3408 11.8784 12.5407 11.7957 12.7608 11.7177 12.9682 11.6823 13.1891 11.6915 13.4103L11.6915 15.1998C11.6931 16.6421 12.1276 18.0507 12.9388 19.2432 13.75 20.4357 14.9005 21.3572 16.2413 21.8885 16.2507 21.8922 16.2602 21.8957 16.2696 21.8992 16.6415 22.0336 17.0486 22.0336 17.4204 21.8992 17.4299 21.8957 17.4393 21.8922 17.4487 21.8885 18.7895 21.3572 19.94 20.4357 20.7512 19.2432 21.5624 18.0507 21.9969 16.6421 21.9986 15.1998V13.4103C22.0078 13.1891 21.9724 12.9682 21.8944 12.7608 21.8116 12.5407 21.6828 12.3408 21.5165 12.1745 21.1936 11.8515 20.7551 11.5828 20.3385 11.368 19.9061 11.1452 19.4257 10.9446 18.9657 10.7768 18.5046 10.6087 18.0481 10.4678 17.6581 10.3675 17.3031 10.2762 16.9057 10.1923 16.6097 10.1923Z"/>
</svg>

<svg viewBox="0 0 24 24" xmlns="http://www.w3.org/2000/svg" data-title="SecurityProfileAccountFill" fill="currentColor" stroke="none">
  <path d="m9.23,2c-2.27,0-4.12,1.84-4.12,4.12s1.84,4.12,4.12,4.12,4.12-1.84,4.12-4.12-1.84-4.12-4.12-4.12Zm0,8.97c-.54,0-1.08.06-1.6.18-1.06.24-2.05.72-2.9,1.4-.85.68-1.54,1.54-2.01,2.52-.47.98-.71,2.05-.71,3.14v2.08c0,.55.45,1,1,1h7.61c.37,0,.71-.2.88-.53.17-.33.15-.72-.05-1.03-.57-.85-.96-2.17-1.16-3.63-.2-1.45-.2-2.92-.07-4.01.03-.28-.06-.57-.25-.78-.19-.21-.46-.34-.75-.34Zm7.39-.78c-.32,0-.7.1-1.02.19-.36.11-.76.26-1.17.43-.77.33-1.7.81-2.25,1.36-.17.17-.3.37-.38.59-.08.21-.11.43-.1.65v1.79c0,1.44.44,2.85,1.25,4.04.81,1.19,1.96,2.11,3.3,2.65,0,0,.02,0,.03.01.37.13.78.13,1.15,0,0,0,.02,0,.03-.01,1.34-.53,2.49-1.45,3.3-2.65.81-1.19,1.25-2.6,1.25-4.04v-1.79c0-.22-.03-.44-.1-.65-.08-.22-.21-.42-.38-.59-.32-.32-.76-.59-1.18-.81-.43-.22-.91-.42-1.37-.59-.46-.17-.92-.31-1.31-.41-.35-.09-.75-.18-1.05-.18Z"/>
</svg>
